<?xml version="1.0" encoding="UTF-8"?>
<map version="1.10" tiledversion="1.12.2" orientation="orthogonal" renderorder="right-down" width="14" height="10" tilewidth="16" tileheight="16" infinite="0" nextlayerid="11" nextobjectid="1">
 <tileset firstgid="1" source="GB tilesheet 5 colours.tsx"/>
 <layer id="1" name="Ground" width="14" height="10">
  <data encoding="csv">
0,0,0,0,0,0,0,0,0,0,0,0,0,0,
0,0,0,0,0,0,0,0,0,0,0,0,0,0,
0,0,0,0,0,0,0,0,0,0,0,0,0,0,
0,0,0,0,2,2,2,2,2,2,0,0,0,0,
0,0,0,0,2,2,2,2,2,2,0,0,0,0,
2,2,2,2,2,2,2,2,2,2,0,0,0,0,
2,2,2,2,2,2,2,2,2,2,0,0,0,0,
2,2,2,2,2,2,2,2,2,2,2,2,2,2,
2,2,2,2,2,2,2,2,2,2,2,2,2,2,
2,2,2,2,2,2,2,2,2,2,2,2,2,2
</data>
 </layer>
 <layer id="5" name="Wall" width="14" height="10">
  <data encoding="csv">
14,14,14,14,17,17,17,17,17,17,16,16,16,16,
14,14,14,14,17,17,17,17,17,17,16,16,16,16,
14,14,14,14,17,17,17,17,17,17,16,16,16,16,
14,14,14,14,0,0,0,0,0,0,16,16,16,16,
14,14,14,14,0,0,0,0,0,0,16,16,16,16,
0,0,0,0,0,0,0,0,0,0,16,16,16,16,
0,0,0,0,0,0,0,0,0,0,16,16,16,16,
0,0,0,0,0,0,0,0,0,0,0,0,0,0,
0,0,0,0,0,0,0,0,0,0,0,0,0,0,
0,0,0,0,0,0,0,0,0,0,0,0,0,0
</data>
 </layer>
 <layer id="4" name="Wall Elements" width="14" height="10">
  <data encoding="csv">
0,0,0,0,0,0,0,0,0,0,0,0,0,0,
0,0,0,0,0,0,43,44,0,0,0,0,0,0,
0,0,0,0,0,0,0,0,0,0,0,0,0,0,
0,0,0,0,0,0,0,0,0,0,0,118,120,0,
0,0,0,0,0,0,0,0,0,0,0,0,0,0,
0,0,0,0,0,0,0,0,0,0,0,118,119,0,
0,0,0,0,0,0,0,0,0,0,0,0,0,0,
0,0,0,0,0,0,0,0,0,0,0,0,0,54,
0,0,0,0,0,0,0,0,0,0,0,0,0,65,
0,0,0,0,0,0,0,0,0,0,0,0,0,0
</data>
 </layer>
 <layer id="3" name="GroundElements" width="14" height="10">
  <data encoding="csv">
0,0,0,0,0,0,0,0,0,0,0,0,0,0,
0,0,0,0,0,0,0,0,0,0,0,0,0,0,
0,0,0,0,0,0,0,0,0,0,0,0,0,0,
0,0,0,0,6,6,6,6,6,6,0,0,0,0,
0,0,0,0,6,6,6,6,6,6,0,0,0,0,
6,6,6,6,6,6,6,6,6,6,0,0,0,0,
6,6,6,6,6,6,6,6,6,6,0,0,0,0,
6,6,6,6,6,6,6,6,6,6,6,6,6,69,
6,6,6,6,6,6,6,6,6,6,6,6,6,0,
6,6,6,6,6,6,6,6,6,6,6,6,6,0
</data>
 </layer>
 <layer id="6" name="GroundFinishings" width="14" height="10">
  <data encoding="csv">
0,0,0,0,0,0,0,0,0,0,69,0,0,0,
0,0,0,0,0,0,0,0,0,0,69,0,0,0,
0,0,0,0,0,0,0,0,0,0,69,0,0,0,
0,0,0,0,69,79,79,79,79,67,69,0,0,0,
0,0,0,0,69,0,0,0,0,67,69,0,0,0,
79,79,79,79,0,0,0,0,0,67,69,0,0,0,
0,0,0,0,0,0,0,0,0,67,69,0,0,0,
0,0,0,0,0,0,0,168,0,0,79,79,79,79,
0,0,0,0,0,0,0,0,0,0,0,0,0,69,
0,0,0,0,0,0,0,0,0,0,0,0,0,69
</data>
 </layer>
 <layer id="10" name="FinishingsCorners" width="14" height="10">
  <data encoding="csv">
0,0,0,0,0,0,0,0,0,0,0,0,0,0,
0,0,0,0,0,0,0,0,0,0,0,0,0,0,
0,0,0,0,0,0,0,0,0,0,0,0,0,0,
0,0,0,0,79,0,0,0,0,79,0,0,0,0,
0,0,0,0,0,0,0,0,0,0,0,0,0,0,
0,0,0,0,0,0,0,0,0,0,0,0,0,0,
0,0,0,0,0,0,0,0,0,0,0,0,0,0,
0,0,0,0,0,0,0,0,0,0,0,0,0,0,
0,0,0,0,0,0,0,0,0,0,0,0,0,0,
0,0,0,0,0,0,0,0,0,0,0,0,0,0
</data>
 </layer>
 <layer id="2" name="Furniture" width="14" height="10">
  <data encoding="csv">
0,0,0,0,0,0,0,0,0,0,0,0,0,0,
0,0,0,0,0,0,0,0,0,0,0,0,0,0,
0,0,0,0,0,0,0,0,0,0,0,0,0,0,
0,0,0,0,0,0,0,0,0,0,0,0,0,0,
0,0,0,0,0,0,0,0,0,0,0,0,0,0,
113,38,39,0,0,0,0,0,0,0,0,0,0,0,
145,0,0,0,152,153,153,154,0,0,0,0,0,0,
156,0,0,0,163,164,164,165,0,0,0,0,0,0,
0,146,147,0,174,175,175,176,0,0,0,0,0,0,
0,0,0,0,0,0,0,0,0,0,0,0,0,0
</data>
 </layer>
 <layer id="9" name="Objects" width="14" height="10">
  <data encoding="csv">
0,0,0,0,0,0,0,0,0,0,0,0,0,0,
0,0,0,0,0,0,0,0,0,0,0,0,0,0,
0,0,0,0,0,0,0,0,0,0,0,0,0,0,
0,0,0,0,0,0,0,0,0,0,0,0,0,0,
0,0,0,71,0,0,0,0,0,0,0,0,0,0,
0,0,0,82,0,0,0,0,0,0,0,29,30,0,
0,0,0,0,0,0,0,0,0,0,0,40,41,0,
0,0,0,0,0,0,0,0,0,0,0,0,0,0,
0,0,0,0,0,0,0,0,0,0,0,0,0,0,
0,0,0,0,0,0,0,0,0,0,0,0,0,0
</data>
 </layer>
</map>
